X: 13893
T: Fox On The Town, The
R: reel
M: 4/4
K: Gmajor
g|gedg edBA|~G3B dGBd|gedg e3f|g2fg efga|
beed edBA|~G3B dGBd|eggb agfe|dggf g3:|
a|be~e2 bage|dB~B2 dega|be~e2 bage|dggb agef|
g3e dBAB|GDGB dGBd|eggb agfe|dggf g3:|

